X:2470
T:Campbells Are Coming,The. TLY.040
M:6/8
L:1/8
S:Wm.Tildesley,Swinton,Lancs.1860s.
R:Jig
O:England.
A:Lancashire.
N:No keysignature given in original, but probably D. At end it is marked
N:DC - I've used chord notation to cheat
H:1860.
Z:vmp.Taz Tarry.
K:C
G|cea gec|[Ge][Ge][Ge] [G2e2] d|cea gec|[Ge][Ge][Ge] [G2e2] e|cea gec|!
e2 g c'2-d'|e'-d'c'- c'b-a| gaf efd:||G|c2c cde| G2G GED|!
c2c cde|A2A A2B|cdc cBA| GAB c2d|edc cBA|gaf "D.C."efd||


